packages/ffe-icons/icons/open/300/md/auto_awesome_motion.svg

<svg xmlns="http://www.w3.org/2000/svg" height="24" viewBox="0 -960 960 960" width="24"><path d="M492.309-100.001q-30.308 0-51.308-21t-21-51.308v-295.382q0-30.308 21-51.308t51.308-21h295.382q30.308 0 51.308 21t21 51.308v295.382q0 30.308-21 51.308t-51.308 21H492.309Zm0-59.999h295.382q4.616 0 8.463-3.846 3.846-3.847 3.846-8.463v-295.382q0-4.616-3.846-8.463-3.847-3.846-8.463-3.846H492.309q-4.616 0-8.463 3.846-3.846 3.847-3.846 8.463v295.382q0 4.616 3.846 8.463 3.847 3.846 8.463 3.846ZM260.001-285.385v-342.306q0-30.308 21-51.308t51.308-21h342.306q12.769 0 21.384 8.616 8.615 8.615 8.615 21.384t-8.615 21.384Q687.384-640 674.615-640H332.309q-4.616 0-8.463 3.846-3.846 3.847-3.846 8.463v342.306q0 12.769-8.615 21.384t-21.384 8.615q-12.769 0-21.384-8.615-8.616-8.615-8.616-21.384Zm-160-160v-342.306q0-30.308 21-51.308t51.308-21h342.306q12.769 0 21.384 8.616 8.615 8.615 8.615 21.384t-8.615 21.384Q527.384-800 514.615-800H172.309q-4.616 0-8.463 3.846-3.846 3.847-3.846 8.463v342.306q0 12.769-8.615 21.384t-21.384 8.615q-12.769 0-21.384-8.615-8.616-8.615-8.616-21.384ZM480-160V-480-160Z"/></svg>

<svg xmlns="http://www.w3.org/2000/svg" height="24" viewBox="0 -960 960 960" width="24"><path d="M492.31-100Q462-100 441-121q-21-21-21-51.31v-295.38Q420-498 441-519q21-21 51.31-21h295.38Q818-540 839-519q21 21 21 51.31v295.38Q860-142 839-121q-21 21-51.31 21H492.31Zm0-60h295.38q4.62 0 8.46-3.85 3.85-3.84 3.85-8.46v-295.38q0-4.62-3.85-8.46-3.84-3.85-8.46-3.85H492.31q-4.62 0-8.46 3.85-3.85 3.84-3.85 8.46v295.38q0 4.62 3.85 8.46 3.84 3.85 8.46 3.85ZM260-285.39v-342.3Q260-658 281-679q21-21 51.31-21h342.3q12.77 0 21.39 8.62 8.61 8.61 8.61 21.38T696-648.62q-8.62 8.62-21.39 8.62h-342.3q-4.62 0-8.46 3.85-3.85 3.84-3.85 8.46v342.3q0 12.77-8.62 21.39-8.61 8.61-21.38 8.61T268.62-264q-8.62-8.62-8.62-21.39Zm-160-160v-342.3Q100-818 121-839q21-21 51.31-21h342.3q12.77 0 21.39 8.62 8.61 8.61 8.61 21.38T536-808.62q-8.62 8.62-21.39 8.62h-342.3q-4.62 0-8.46 3.85-3.85 3.84-3.85 8.46v342.3q0 12.77-8.62 21.39-8.61 8.61-21.38 8.61T108.62-424q-8.62-8.62-8.62-21.39ZM480-160v-320 320Z"/></svg>
